src/images/Email.svg

<svg width="80" height="80" viewBox="0 0 80 80" fill="none" xmlns="http://www.w3.org/2000/svg">
<rect width="80" height="80" rx="10" fill="#FFCC29"/>
<path fill-rule="evenodd" clip-rule="evenodd" d="M52.0015 24.0001H28.0015C23.5832 24.0001 20.0015 27.5818 20.0015 32.0001V50.0001C20.0015 54.4184 23.5832 58.0001 28.0015 58.0001H52.0015C56.4197 58.0001 60.0015 54.4184 60.0015 50.0001V32.0001C60.0015 27.5818 56.4197 24.0001 52.0015 24.0001ZM28.0015 27.1801H52.0015C54.1329 27.1842 56.0064 28.5934 56.6015 30.6401L41.5215 41.8201C41.1082 42.2242 40.5478 42.442 39.9701 42.4231C39.3924 42.4043 38.8475 42.1503 38.4615 41.7201L23.4415 30.6601C24.025 28.6196 25.8793 27.2045 28.0015 27.1801ZM23.1815 50.0001C23.1815 52.6621 25.3395 54.8201 28.0015 54.8201H52.0015C54.6557 54.8091 56.8015 52.6543 56.8015 50.0001V33.9401L43.2015 43.9401C42.3323 44.7493 41.189 45.1995 40.0015 45.2001C38.767 45.1805 37.5838 44.7029 36.6815 43.8601L23.1815 33.8601V50.0001Z" fill="#C10023"/>
</svg>

<svg xmlns="http://www.w3.org/2000/svg" width="80" height="80" fill="none"><rect width="80" height="80" fill="#FFCC29" rx="10"/><path fill="#C10023" fill-rule="evenodd" d="M52.002 24h-24a8 8 0 0 0-8 8v18a8 8 0 0 0 8 8h24a8 8 0 0 0 8-8V32a8 8 0 0 0-8-8m-24 3.18h24a4.8 4.8 0 0 1 4.6 3.46l-15.08 11.18a2.12 2.12 0 0 1-3.06-.1l-15.02-11.06a4.8 4.8 0 0 1 4.56-3.48M23.182 50a4.82 4.82 0 0 0 4.82 4.82h24a4.82 4.82 0 0 0 4.8-4.82V33.94l-13.6 10a4.7 4.7 0 0 1-3.2 1.26 4.98 4.98 0 0 1-3.32-1.34l-13.5-10z" clip-rule="evenodd"/></svg>
